!!!COA:	Josquin des Prez
!!!CDT:	~1450-1521/08/27
!!!OPR:	Missa Di dadi
!!!ONM:	4
!!!OTL:	Sanctus
!!!AGN:	Mass; Sanctus
!!!SCT:	NJE 9.3
!!!SCA:	New Josquin Edition 9.3
!!!voices:	4
!!!voices-OPR:	4
**kern	**kern	**kern	**kern
*staff4	*staff3	*staff2	*staff1
*Ivox	*Ivox	*Ivox	*Ivox
*I"Bassus	*I"Tenor	*I"Altus	*I"Superius
*I'B	*I'T	*I'A	*I'S
*>[A,B,C,D,C]	*>[A,B,C,D,C]	*>[A,B,C,D,C]	*>[A,B,C,D,C]
*>Sanctus[A]	*>Sanctus[A]	*>Sanctus[A]	*>Sanctus[A]
*>Pleni[B]	*>Pleni[B]	*>Pleni[B]	*>Pleni[B]
*>Osanna[C]	*>Osanna[C]	*>Osanna[C]	*>Osanna[C]
*>Benedictus[D]	*>Benedictus[D]	*>Benedictus[D]	*>Benedictus[D]
*>A	*>A	*>A	*>A
*clefF4	*clefGv2	*clefGv2	*clefG2
*k[b-]	*k[b-]	*k[b-]	*k[b-]
*M3/1	*M3/1	*M3/1	*M3/1
*met(O)	*met(O)	*met(O)	*met(O)
*	*rscale:1/2	*	*
=1-	=1-	=1-	=1-
!!section: Sanctus
!!!OMD: Sanctus
!	!LO:TX:Z=10:X=-40:t=Canon&colon; Two dice with faces five over one	!	!
!	!LO:N:vis=0.	!	!
0.r	0.r	1.G	0g
.	.	2A/	.
.	.	1B-	1g
=2	=2-	=2	=2
0.r	0.ryy	1c	1e
.	.	1A	1.f
.	.	[1d	.
.	.	.	4g/
.	.	.	4a/
=3	=3	=3	=3
!	!LO:N:vis=0.	!	!
0.r	0.r	1d]	1.b-
.	.	0G	.
.	.	.	4a/
.	.	.	4g/
.	.	.	1b-
=4	=4-	=4	=4
0.r	0.ryy	0.c	2a/
.	.	.	1g
.	.	.	2f/
.	.	.	1e
=5	=5	=5	=5
1r	[0.G	0.B-	2d/
.	.	.	2G/
1r	.	.	2.B-/
.	.	.	4c/
1G	.	.	1d
=6	=6-	=6	=6
1.B-	0G]	1d	2r
.	.	.	2G/
.	.	1G	2.B-/
2A\	.	.	.
.	.	.	4c/
2.G\	1B-	1r	1d
4F\	.	.	.
=7	=7	=7	=7
1E	1c	1G	1e
0D	[0d	1A	0f
.	.	[1B-	.
=8	=8-	=8	=8
1r	0.d]	2B-\]	2r
.	.	4A/	1B-
.	.	4G/	.
1G	.	1.B-	.
.	.	.	4A/
.	.	.	4G/
[1B-	.	.	2.d/
.	.	2c\	.
.	.	.	4e/
=9	=9	=9	=9
2B-\]	1r	1d	1f
2A\	.	.	.
2.G\	1B-	2r	0g
.	.	1d	.
4F\	.	.	.
1E	1G	.	.
.	.	2c\	.
=10	=10-	=10	=10
0D	1A	0d	1f
.	[0B-	.	2r
.	.	.	2f/
1r	.	1G	2g/
.	.	.	[2b-\
=11	=11	=11	=11
1.G	0.B-]	1d	4b-\]
.	.	.	4a/
.	.	.	4g/
.	.	.	4f/
.	.	2r	2e/
2.B-\	.	[1.G	2d/
.	.	.	[1g
4A\	.	.	.
4G\	.	.	.
4F\	.	.	.
=12	=12-	=12	=12
1E	1c	2G/]	1g]
.	.	2G/	.
0D	[0d	2.A/	1f
.	.	4G/	.
.	.	2A/	2r
.	.	2B-\	2f/
=13	=13	=13	=13
1r	0.d]	2.G/	2g/
.	.	.	2b-\
.	.	4A/	.
1G	.	2B-\	2g/
.	.	2G/	2.b-\
2G\	.	2.B-\	.
.	.	.	4a/
[2B-\	.	.	2g/
.	.	4c\	.
=14	=14-	=14	=14
4B-\]	1B-	2d\	2f/
4A\	.	.	.
2G\	.	2B-\	2g/
2F\	[0A	1c	2a/
2E\	.	.	1g
1D	.	2r	.
.	.	2d\	2f/
=15	=15	=15	=15
2r	0.A]	2c\	2e/
1D	.	2.d\	1f
.	.	4f\	.
2C/	.	2e\	1g
1D	.	1d	.
.	.	.	2f#i/
=16	=16-	=16	=16
2r	[0.G	2.B-\	2.g/
2.G\	.	.	.
.	.	4c\	4a/
.	.	2d\	1b-
4A\	.	.	.
2B-\	.	2d\	.
2G\	.	2d\	1r
[2B-\	.	4G/	.
.	.	4A/	.
=17	=17	=17	=17
4B-\]	0G]	4B-\	2r
4A\	.	4c\	.
4G\	.	1d	1b-
4F\	.	.	.
1E	.	.	.
.	.	2c\	4a/
.	.	.	4g/
[1D	[1F	[1d	2b-\
.	.	.	2a/
=18	=18-	=18	=18
1D]	0.F_	1d]	2r
.	.	.	1a
2r	.	2.D/	.
2.D\	.	.	2a/
.	.	4E/	.
.	.	2F/	2.a/
4E\	.	.	.
2F\	.	2D/	.
.	.	.	8g/L
.	.	.	8a/J
=19	=19	=19	=19
2D\	1F]	2r	2b-\
2.F\	.	2.D/	2.a/
.	1A	.	.
4E\	.	4E/	4g/
4D\	.	2F/	4f/
4C/	.	.	4e/
1BB-	1B-	2G/	1d
.	.	2D/	.
=20	=20-	=20	=20
1AA	1c	2E/	1a
.	.	2F/	.
2r	1B-	2.G/	0b-
2.G\	.	.	.
.	.	4A/	.
.	[1G	2B-\	.
4A\	.	.	.
2B-\	.	2G/	.
=21	=21	=21	=21
2G\	0.G_	2B-\	2.B-/
2B-\	.	2G/	.
.	.	.	4c/
2G\	.	2B-\	1d
2.B-\	.	4G/	.
.	.	4A/	.
.	.	4B-\	2G/
4A\	.	4c\	.
4G\	.	[2d\	[2b-\
4F\	.	.	.
=22	=22-	=22	=22
1E	1G]	2d\]	4b-\]
.	.	.	4a/
.	.	4B-\	2g/
.	.	4c\	.
0D	[0A	4d\	2f/
.	.	4e\	.
.	.	2.f\	2.a/
.	.	4e\	4g/
.	.	2d\	2f/
=23	=23	=23	=23
2r	0.A]	2c\	2e/
1D	.	1f	1d
2C/	.	2e\	1g
1D	.	2d\	.
.	.	2c\	2f#i/
=24	=24-	=24	=24
!	!LO:N:vis:00	!	!
[0.GGl	[0.Gl	2B-\	[0.gl
.	.	2A/	.
.	.	2G/	.
.	.	2F/	.
.	.	1E	.
=25	=25	=25	=25
0.GG]	0.G]	0.Dl	0.g]
*	*rscale:1	*	*
!!LO:LB:i:g=z
=26||	=26||	=26||	=26||
*>B	*>B	*>B	*>B
*clefF4	*clefGv2	*clefGv2	*clefG2
*k[b-]	*k[b-]	*k[b-]	*k[b-]
*M3/1	*M3/1	*M3/1	*M3/1
*met(O)	*met(O)	*met(O)	*met(O)
!!section: Pleni
!!!OMD: Pleni
0GG	0.r	0G	0.r
1D	.	1F	.
=27	=27	=27	=27
1E	0.r	1G	0.r
1.F	.	0A	.
4G\	.	.	.
4A\	.	.	.
=28	=28	=28	=28
1.B-	0.r	1.G	0.r
4A\	.	1.d	.
4G\	.	.	.
1B-	.	.	.
=29	=29	=29	=29
0A	0.r	1.c	0.r
.	.	1.f	.
2D\	.	.	.
[2A\	.	.	.
=30	=30	=30	=30
2A\]	0.r	1.e	0.r
2G\	.	.	.
2E\	.	.	.
2G\	.	1.d	.
2F\	.	.	.
2D\	.	.	.
=31	=31	=31	=31
2F\	0.r	1.c	0.r
2E\	.	.	.
2C/	.	.	.
2E-\	.	1.B-	.
2D\	.	.	.
2BB-/	.	.	.
=32	=32	=32	=32
2D\	0.r	1.A	0.r
2C/	.	.	.
2AA/	.	.	.
2C/	.	1.G	.
2BB-/	.	.	.
2GG/	.	.	.
=33	=33	=33	=33
2BB-/	0.r	1.F	0.r
2.AA/	.	.	.
4GG/	.	.	.
4AA/	.	1.E	.
4BB-/	.	.	.
2C/	.	.	.
[2GG/	.	.	.
=34	=34	=34	=34
4GG/]	0.r	1D	0.r
4AA/	.	.	.
2.BB-/	.	.	.
.	.	0d	.
4C/	.	.	.
2.D\	.	.	.
4E\	.	.	.
[2F\	.	.	.
=35	=35	=35	=35
2F\]	0.r	1D	0.r
2BB-/	.	.	.
2C/	.	1E	.
1AA	.	.	.
.	.	1F	.
2D\	.	.	.
=36	=36	=36	=36
2BB-/	0.r	1G	0.r
1C	.	.	.
.	.	1A	.
2AA/	.	.	.
2GG/	.	1B-	.
2G\	.	.	.
=37	=37	=37	=37
2E\	0.r	1c	0.r
1F	.	.	.
.	.	1d	.
2D\	.	.	.
1C	.	1e	.
=38	=38	=38	=38
2BB-/	0.r	2.f\	0.r
2.D\	.	.	.
.	.	4e\	.
.	.	2d\	.
4E\	.	.	.
2F\	.	2c\	.
2G\	.	2B-\	.
2A\	.	2A/	.
=39	=39	=39	=39
2B-\	0.r	2.d\	0.r
2.BB-/	.	.	.
.	.	4c\	.
.	.	2B-\	.
4C/	.	.	.
2D\	.	2A/	.
2E\	.	2G/	.
2F\	.	2F/	.
=40	=40	=40	=40
2G\	0.r	2.B-\	0.r
2.GG/	.	.	.
.	.	4A/	.
.	.	2G/	.
4AA/	.	.	.
2BB-/	.	2F/	.
2C/	.	2E/	.
2D\	.	2D/	.
=41	=41	=41	=41
2GG/	0.r	2.B-\	0.r
2D\	.	.	.
.	.	4A/	.
2E\	.	2G/	.
1D	.	2F/	.
.	.	1E	.
2C#i/	.	.	.
=42	=42	=42	=42
0D	0.r	1D	2r
.	.	.	2.d/
.	.	1D	.
.	.	.	4e/
.	.	.	2f/
1r	.	2r	2g/
.	.	2d\	2a/
=43	=43	=43	=43
0.r	0.r	2.f\	2d/
.	.	.	2a/
.	.	4e\	.
.	.	2d\	2b-\
.	.	2c\	1a
.	.	1B-	.
.	.	.	2g/
=44	=44	=44	=44
1r	0.r	2A/	0a
.	.	2.D/	.
1r	.	.	.
.	.	4E/	.
.	.	2F/	.
2r	.	2G/	1r
2D\	.	2A/	.
=45	=45	=45	=45
2.F\	0.r	2D/	0.r
.	.	2A/	.
4E\	.	.	.
2D\	.	2B-\	.
2C/	.	1A	.
1BB-	.	.	.
.	.	2G/	.
=46	=46	=46	=46
0AA	0.r	1A	2r
.	.	.	2a/
.	.	2r	2.cc\
.	.	2A/	.
.	.	.	4b-\
1r	.	2.c\	2a/
.	.	.	2g/
.	.	4B-\	.
=47	=47	=47	=47
0.r	0.r	4A/	2.cc\
.	.	4G/	.
.	.	2.F/	.
.	.	.	4b-\
.	.	.	4a/
.	.	4G/	4g/
.	.	2B-\	2.f/
.	.	2A/	.
.	.	.	4g/
.	.	2G/	2b-\
=48	=48	=48	=48
0.r	0.r	2.c\	2a/
.	.	.	2g/
.	.	4B-\	.
.	.	4A/	2.cc\
.	.	4G/	.
.	.	2F/	.
.	.	.	4b-\
.	.	2c\	4a/
.	.	.	4g/
.	.	[2d\	[2b-\
=49	=49	=49	=49
0.r	0.r	4d\]	2b-\]
.	.	4e\	.
.	.	2f\	2a/
.	.	2e\	2g/
.	.	1d	2f/
.	.	.	1e
.	.	2c\	.
=50	=50	=50	=50
1r	0.r	2.B-\	0d
.	.	4G/	.
2r	.	2B-\	.
2D\	.	1A	.
2.F\	.	.	1r
.	.	2d\	.
4E\	.	.	.
=51	=51	=51	=51
4D\	0.r	2.f\	0.r
4C/	.	.	.
2.BB-/	.	.	.
.	.	4e\	.
.	.	4d\	.
4C/	.	4c\	.
2E-i\	.	2.B-\	.
2D\	.	.	.
.	.	4c\	.
2C/	.	2e-\	.
=52	=52	=52	=52
2.F\	0.r	2d\	0.r
.	.	2c\	.
4E\	.	.	.
4D\	.	2.f\	.
4C/	.	.	.
2BB-/	.	.	.
.	.	4e\	.
2F\	.	4d\	.
.	.	4c\	.
[2G\	.	[2e-i\	.
=53	=53	=53	=53
4G\]	0.r	2e-\]	0.r
4A\	.	.	.
2B-\	.	2d\	.
2A\	.	2c\	.
1G	.	2B-\	.
.	.	1A	.
2F#i\	.	.	.
=54	=54	=54	=54
0G	0.r	0G	1r
.	.	.	2r
.	.	.	2d/
1D	.	2r	2.f/
.	.	2d\	.
.	.	.	4e/
=55	=55	=55	=55
1r	0.r	2.f\	4d/
.	.	.	4c/
.	.	.	2.B-/
.	.	4e\	.
1r	.	2d\	.
.	.	.	4c/
.	.	2c\	2e-i/
2r	.	2B-\	2d/
[2F\	.	[2A/	2c/
=56	=56	=56	=56
4F\]	0.r	2A/]	2.f/
4E\	.	.	.
4D\	.	2.f\	.
4C/	.	.	4e/
2BB-/	.	.	4d/
.	.	4e\	4c/
2.B-\	.	2.d\	2B-/
.	.	.	2f/
4A\	.	4c\	.
4G\	.	[2B-\	[2g/
4F\	.	.	.
=57	=57	=57	=57
2.G\	0.r	4B-\]	4g/]
.	.	4A/	4a/
.	.	2G/	2b-\
4F\	.	.	.
2D\	.	2F/	2a/
2E-i\	.	2G/	1g
1D	.	1A	.
.	.	.	2f#i/
=58	=58	=58	=58
0.GGl	0.r	0.Gl	0.gl
!!LO:LB:i:g=z
=59||	=59||	=59||	=59||
*>C	*>C	*>C	*>C
*clefF4	*clefGv2	*clefGv2	*clefG2
*k[b-]	*k[b-]	*k[b-]	*k[b-]
*M3/1	*M3/1	*M3/1	*M3/1
*met(O|)	*met(O|)	*met(O|)	*met(O|)
!!!OMD: Osanna
!!section: Osanna
1G	1G	1B-	1g
2G\	2B-\	2B-\	2d/
2E\	2c\	2G/	2e/
1D	1d	1A	1f
=60	=60	=60	=60
1G	2r	1G	2g/
.	2B-\	.	2d/
2E\	2G/	2r	2e/
2D\	2A/	1d	2f/
1G	1B-	.	1d
.	.	[2G/	.
=61	=61	=61	=61
2E\	2c\	2G/]	2e/
2D\	1d	2A/	2f/
1G	.	1B-	2d/
.	2B-\	.	2e/
2F\	1A	2c\	1f
2D\	.	2d\	.
=62	=62	=62	=62
1E-	1G	2B-\	2g/
.	.	2G/	1b-
1D	1F	0d	.
.	.	.	2a/
2D\	2A/	.	2f/
2G\	2B-\	.	2g/
=63	=63	=63	=63
2F\	2c\	1f	2a/
2D\	2B-\	.	1b-
1E-i	1G	2B-\	.
.	.	2c\	1g
1D	1A	1d	.
.	.	.	2f#i/
=64	=64	=64	=64
2GG/	1G	2B-\	2g/
2C/	.	2c\	2e/
2BB-/	1r	2d\	2f/
2GG/	.	1B-	2g/
1G	1B-	.	2d/
.	.	2G/	2e/
=65	=65	=65	=65
2F\	1d	2A/	1f
2D\	.	2B-\	.
2F\	2c\	2A/	2a/
2G\	1B-	1d	2d/
1E-i	.	.	1g
.	2G/	2c\	.
=66	=66	=66	=66
1D	1A	2d\	1f
.	.	2A/	.
2r	2G/	2B-\	2e/
1D	2F/	2A/	2d/
.	1E	2B-\	1g
2C/	.	2c\	.
=67	=67	=67	=67
2D\	1D	2F/	2f/
2GG/	.	1B-	2g/
2BB-/	1G	.	2d/
2C/	.	1G	2e-i/
1AA	2r	.	1c
.	2A/	2F#i/	.
=68	=68	=68	=68
1GG	1B-	1G	2B-/
.	.	.	2d/
2C/	2c\	2E/	2e/
2D\	2A/	2D/	2f/
2BB-/	1G	2d\	2g/
2C/	.	2c\	2e/
=69	=69	=69	=69
2D\	1F	2A/	2f/
2BB-/	.	2d\	2d/
2C/	1A	2c\	2e/
2D\	.	2A/	2f/
2BB-/	1G	2B-\	2g/
[2C/	.	2G/	2e/
=70	=70	=70	=70
2C/]	2E/	2c\	2g/
1D	2F/	2A/	1f
.	2D/	1B-	.
2BB-/	1G	.	2d/
2C/	.	1A	2e/
2D\	2F/	.	2f/
=71	=71	=71	=71
2GG/	2B-\	2G/	2d/
2G\	2G/	2B-\	1e
2F\	2A/	2c\	.
2D\	1B-	2d\	1d
1E	.	1G	.
.	2G/	.	2c#i/
=72	=72	=72	=72
0D	0F	1A	1d
.	.	2r	2d/
.	.	1d	2B-/
1D	1r	.	1A
.	.	[2d\	.
=73	=73	=73	=73
2GG/	1B-	1d]	2G/
2BB-/	.	.	2d/
2C/	2A/	2c\	2e/
2D\	2F/	2A/	2f/
2BB-/	1G	2d\	2d/
2C/	.	2c\	2e/
=74	=74	=74	=74
1D	1F	1A	1f
2GG/	1B-	2G/	1d
2BB-/	.	2d\	.
2C/	2A/	2c\	2e/
2D\	2F/	2A/	2f/
=75	=75	=75	=75
2BB-/	2G/	2B-\	2d/
2C/	1A	2A/	2c/
1D	.	2F/	2A/
.	2F/	1.A	1d
1AA	1E	.	.
.	.	.	2c#i/
=76	=76	=76	=76
1BB-	2D/	2F/	1d
.	1G	2G/	.
2C/	.	2E/	2e/
2D\	2F/	2D/	2f/
2GG/	1B-	[1d	2g/
[2G\	.	.	2d/
=77	=77	=77	=77
2G\]	1G	1d]	1b-
1E-i	.	.	.
.	2r	2c\	2g/
2D\	2A/	1d	2f/
2BB-/	2B-\	.	2d/
2E-i\	2c\	2G/	2g/
=78	=78	=78	=78
2D\	1d	2A/	2f/
2BB-/	.	2B-\	2d/
2C/	2c\	2A/	2e/
1D	2B-\	1F	1f
.	1A	.	.
2F\	.	2c\	2a/
=79	=79	=79	=79
2G\	1G	2B-\	2d/
2GG/	.	1d	1b-
2D\	1F	.	.
1F	.	2c\	1a
.	2A/	1F	.
2D\	2B-\	.	2f/
=80	=80	=80	=80
2C/	2c\	2G/	2e/
2BB-/	2d\	1B-	1d
1E-	2B-\	.	.
.	2G/	2c\	1g
1D	1A	1d	.
.	.	.	2f#i/
=81	=81	=81	=81
2BB-/	[0.Gl	2D/	[0.gl
1C	.	1E-	.
2BB-/	.	2D/	.
1C	.	1E-i	.
=82	=82	=82	=82
0.GGl	0.G]	0.Dl	0.g]
!!LO:TX:rj:i:t=fine
!!LO:LB:i:g=z
=83||	=83||	=83||	=83||
*>D	*>D	*>D	*>D
*clefF4	*clefGv2	*clefGv2	*clefG2
*k[b-]	*k[b-]	*k[b-]	*k[b-]
*M2/1	*M2/1	*M2/1	*M2/1
*met(C|)	*met(C|)	*met(C|)	*met(C|)
!!!OMD: Benedictus
!!section: Benedictus
[0D	[0A	0r	0r
=84	=84	=84	=84
0D]	1A]	0r	0r
.	[1B-	.	.
=85	=85	=85	=85
0GG	2B-\]	0r	0r
.	2G/	.	.
.	[1G	.	.
=86	=86	=86	=86
0G	1G]	0r	0r
.	[1d	.	.
=87	=87	=87	=87
0G	1d]	0r	0r
.	[1e	.	.
=88	=88	=88	=88
1.A	2e\]	0r	0r
.	2c\	.	.
.	[1c	.	.
2F\	.	.	.
=89	=89	=89	=89
0F	1c]	0r	0r
.	1f	.	.
=90	=90	=90	=90
1B-	1d	0r	0r
1G	[1e	.	.
=91	=91	=91	=91
1.A	2e\]	0r	0r
.	2c\	.	.
.	[1c	.	.
2F\	.	.	.
=92	=92	=92	=92
0F	1c]	0r	0r
.	1d	.	.
=93	=93	=93	=93
1G	1B-	0r	0r
1E	[1c	.	.
=94	=94	=94	=94
1.F	2c\]	0r	0r
.	2A/	.	.
.	[1A	.	.
2D\	.	.	.
=95	=95	=95	=95
0D	1A]	0r	0r
.	1B-	.	.
=96	=96	=96	=96
1E	1G	0r	0r
1C	[1A	.	.
=97	=97	=97	=97
1.D	2A/]	0r	0r
.	2F/	.	.
.	[1F	.	.
2BB-/	.	.	.
=98	=98	=98	=98
0BB-	1F]	0r	0r
.	1G	.	.
=99	=99	=99	=99
1C	1E	0r	0r
1AA	[1F	.	.
=100	=100	=100	=100
1.BB-	2F/]	0r	0r
.	2D/	.	.
.	[1D	.	.
2GG/	.	.	.
=101	=101	=101	=101
0GG	1D]	0r	0r
.	[1d	.	.
=102	=102	=102	=102
0G	1d]	0r	0r
.	1B-	.	.
=103	=103	=103	=103
1E	1c	0r	0r
1F	[1d	.	.
=104	=104	=104	=104
1.G	2d\]	0r	0r
.	2G/	.	.
.	[1G	.	.
2C/	.	.	.
=105	=105	=105	=105
0C	1G]	0r	0r
.	[1c	.	.
=106	=106	=106	=106
0F	1c]	0r	0r
.	1A	.	.
=107	=107	=107	=107
1D	1B-	0r	0r
1E	[1c	.	.
=108	=108	=108	=108
1.F	2c\]	0r	0r
.	2F/	.	.
.	[1F	.	.
2BB-/	.	.	.
=109	=109	=109	=109
0BB-	1F]	0r	0r
.	[1f	.	.
=110	=110	=110	=110
1.B-	2f\]	0r	0r
.	2e\	.	.
.	2d\	.	.
2A\	2c\	.	.
=111	=111	=111	=111
2G\	2d\	0r	0r
2F\	2f\	.	.
2G\	2e\	.	.
2B-\	2d\	.	.
=112	=112	=112	=112
2A\	2c\	0r	0r
2G\	2B-\	.	.
2F\	2A/	.	.
2E\	2G/	.	.
=113	=113	=113	=113
2D\	2A/	0r	0r
2C/	2c\	.	.
2D\	2B-\	.	.
2F\	2A/	.	.
=114	=114	=114	=114
2E\	2G/	0r	0r
2D\	2F/	.	.
2C/	2E/	.	.
2BB-/	2D/	.	.
=115	=115	=115	=115
2AA/	2E/	0r	0r
2GG/	2G/	.	.
2AA/	2F/	.	.
2C/	2E/	.	.
=116	=116	=116	=116
2BB-/	2.G/	0r	0r
2.GG/	.	.	.
.	4F/	.	.
.	2.D/	.	.
4AA/	.	.	.
4BB-/	.	.	.
4C/	4E/	.	.
=117	=117	=117	=117
1D	4F/	0r	0r
.	4G/	.	.
.	1A	.	.
2F\	.	.	.
2E\	2c\	.	.
=118	=118	=118	=118
2D\	2B-\	0r	0r
2.F\	2A/	.	.
.	2.c\	.	.
4E\	.	.	.
[2C/	.	.	.
.	4B-\	.	.
=119	=119	=119	=119
4C/]	2.G/	0r	0r
4D\	.	.	.
4E\	.	.	.
4F\	4A/	.	.
1G	4B-\	.	.
.	4c\	.	.
.	[2d\	.	.
=120	=120	=120	=120
2B-\	2d\]	0r	0r
2A\	2f\	.	.
2G\	2e\	.	.
[2B-\	2d\	.	.
=121	=121	=121	=121
4B-\]	2.f\	0r	0r
4A\	.	.	.
2.F\	.	.	.
.	4e\	.	.
.	2c\	.	.
4E\	.	.	.
[2G\	2B-\	.	.
=122	=122	=122	=122
4G\]	2.d\	0r	0r
4F\	.	.	.
2.D\	.	.	.
.	4c\	.	.
.	2A/	.	.
4C/	.	.	.
[2E-i\	2G/	.	.
=123	=123	=123	=123
4E-\]	2.B-\	0r	0r
4D\	.	.	.
2.BB-/	.	.	.
.	4A/	.	.
.	2F/	.	.
4AA/	.	.	.
[2C/	2E/	.	.
=124	=124	=124	=124
4C/]	2.G/	0r	0r
4BB-/	.	.	.
2GG/	.	.	.
.	4F/	.	.
2BB-/	2D/	.	.
2AA/	2F/	.	.
=125	=125	=125	=125
1C	2E/	0r	0r
.	1G	.	.
2GG/	.	.	.
2BB-/	2D/	.	.
=126	=126	=126	=126
2AA/	2F/	0r	0r
2C/	2E/	.	.
2BB-/	2G/	.	.
[2D\	2F/	.	.
=127	=127	=127	=127
2D\]	1A	0r	0r
2C/	.	.	.
2E\	2G/	.	.
2D\	2B-\	.	.
=128	=128	=128	=128
2F\	2A/	0r	0r
2E\	2c\	.	.
1G	2B-\	.	.
.	[2d\	.	.
=129	=129	=129	=129
2.GG/	2d\]	0r	0r
.	2.D/	.	.
4FF/	.	.	.
4GG/	.	.	.
4AA/	4C/	.	.
4BB-/	4D/	.	.
4C/	4E/	.	.
=130	=130	=130	=130
4D\	4F/	0r	0r
4E\	4G/	.	.
2.F\	4A/	.	.
.	4B-\	.	.
.	2.c\	.	.
4E\	.	.	.
4C/	.	.	.
4D\	4B-\	.	.
=131	=131	=131	=131
4E\	2G/	0r	0r
4F\	.	.	.
2.G\	2.B-\	.	.
4F\	4A/	.	.
4G\	4B-\	.	.
4E\	4c\	.	.
=132	=132	=132	=132
2F\	2A/	0r	0r
2G\	2.B-\	.	.
2D\	.	.	.
.	4A/	.	.
2GG/	4B-\	.	.
.	4c\	.	.
=133	=133	=133	=133
2D\	2A/	0r	0r
2GG/	2.B-\	.	.
2D\	.	.	.
.	4A/	.	.
2GG/	4B-\	.	.
.	4c\	.	.
=134	=134	=134	=134
2D\	4A/	0r	0r
.	4G/	.	.
2GG/	2.B-\	.	.
2BB-/	.	.	.
.	4A/	.	.
2C/	[2G/	.	.
=135	=135	=135	=135
2AA/	2G/]	0r	0r
2D\	2F#i/	.	.
2r	2G/	.	.
4GG/	[2B-\	.	.
4AA/	.	.	.
=136	=136	=136	=136
4BB-/	4B-\]	0r	0r
4C/	4A/	.	.
4D\	4B-\	.	.
4E\	4c\	.	.
2F\	2A/	.	.
[2G\	[2B-\	.	.
=137	=137	=137	=137
4G\]	4B-\]	0r	0r
4F\	4A/	.	.
4G\	4B-\	.	.
4E\	4c\	.	.
4F\	4A/	.	.
4E\	4G/	.	.
4D\	[2B-\	.	.
4C/	.	.	.
=138	=138	=138	=138
2BB-/	4B-\]	0r	0r
.	4A/	.	.
2C/	1G	.	.
1AA	.	.	.
.	2F#i/	.	.
=139	=139	=139	=139
0GGl	0Gl	0r	0r
!!LO:TX:i:Y=40:rj:t=Osanna ut supra
=||	=||	=||	=||
*-	*-	*-	*-
!!!RDF**kern: l=long note in original notation
!!!RDF**kern: i=editorial accidental
!!!ENC:	Jesse Rodin; Victoria Chang 2012/01/28
!!!END:	2012/01/28/
!!!EED:	Jesse Rodin
!!!EEV: 2012/04/24/
!!attribution-level@Jos: 3 (tricky)
!!!ONB:	Translated from MusicXML and edited on 2012/03/22/ by Craig Sapp
!!muse2ps: T^@{OPR}^u^@{ONM}{. }@{OTL}^C^@{COA}?\n@{SCT}^i2I150v85,85,85,150c130
